assets/img/components/backtotop.svg

<svg width="272" height="144" viewBox="0 0 272 144" fill="none" xmlns="http://www.w3.org/2000/svg">
<g clip-path="url(#clip0_11_45)">
<path d="M0.5271 8.17505C0.5271 3.75677 4.10882 0.175049 8.5271 0.175049H264.527C268.945 0.175049 272.527 3.75677 272.527 8.17505V65.175H0.5271V8.17505Z" fill="#EFF6FB"/>
<path d="M0.5271 112.175H272.527V136.175C272.527 140.593 268.945 144.175 264.527 144.175H8.52711C4.10883 144.175 0.5271 140.593 0.5271 136.175V112.175Z" fill="#D0D0CE"/>
<path d="M21.8983 126.915C21.6262 126.844 21.3821 126.644 21.0881 126.644C20.6715 126.597 20.0362 126.616 19.5893 126.705C19.271 126.774 19.016 126.832 19.0062 127.189C19.0026 127.505 19.4022 127.826 19.3366 128.149C19.1933 128.72 18.4706 129.071 18.009 129.354C17.89 129.417 17.6969 129.511 17.6167 129.624C17.4831 129.813 17.5122 130.392 17.6167 130.394C19.2637 130.399 24.217 130.401 26.5042 130.4C26.8042 130.425 27.001 130.637 27.1431 130.913C27.2888 131.165 27.3058 131.497 27.4261 131.749C27.5803 132.014 27.9739 132.124 28.2192 132.288C28.5387 132.479 28.8363 132.692 29.1836 132.85C29.3756 132.937 29.6209 133.032 29.7375 133.22L29.8043 133.482C29.797 133.604 29.6355 133.697 29.5492 133.761C29.4156 133.861 29.3015 133.972 29.2262 134.125L29.2079 134.367C29.3148 134.537 29.7436 134.372 29.8893 134.324C30.091 134.256 30.295 134.165 30.5052 134.129C31.4003 133.97 32.3162 133.835 33.1191 133.41C33.2332 133.349 33.4907 133.253 33.5223 133.128C33.6013 132.817 32.6794 133.114 32.5676 133.15C32.3684 133.22 32.1546 133.215 31.9469 133.246C31.4866 133.325 30.8465 133.456 30.3922 133.47C30.1639 133.495 30.0533 133.32 30.1068 133.094C30.1699 132.811 30.4323 132.637 30.4141 132.341C30.3776 131.737 30.5696 131.067 30.5586 130.457C30.5258 129.696 30.844 128.972 30.8671 128.219C30.8878 127.573 30.9801 126.927 30.9011 126.285C30.8319 125.716 30.6145 125.04 30.6594 124.466C30.6704 124.327 30.6922 124.24 30.7311 124.108C30.8902 123.667 30.7396 123.203 30.7408 122.768C30.742 122.224 30.8392 121.996 30.4906 121.931C30.142 121.867 29.1642 121.962 28.7877 121.937C28.2593 121.952 27.7212 121.925 27.2414 122.151C26.6451 122.435 26.1786 122.95 25.7863 123.462C25.5725 123.803 25.1389 123.91 24.9203 124.243C24.698 124.55 24.8802 124.891 24.8923 125.228C24.9069 126.266 24.5462 126.112 23.8793 126.649C23.5915 126.881 23.2052 126.926 22.8481 126.933C22.5651 126.94 22.1728 126.987 21.8983 126.915Z" fill="#A7A9AB"/>
<path d="M75.3426 130.175H47.7116C46.4009 130.175 45.5271 129.375 45.5271 128.174C45.5271 126.973 46.4009 126.175 47.7116 126.175H75.3426C76.6533 126.175 77.5271 126.973 77.5271 128.174C77.5271 129.375 76.6533 130.175 75.3426 130.175Z" fill="#A7A9AB"/>
<path d="M115.343 130.175H87.7116C86.4009 130.175 85.5271 129.375 85.5271 128.174C85.5271 126.973 86.4009 126.175 87.7116 126.175H115.343C116.653 126.175 117.527 126.973 117.527 128.174C117.527 129.375 116.653 130.175 115.343 130.175Z" fill="#A7A9AB"/>
<path d="M155.343 130.175H127.712C126.401 130.175 125.527 129.375 125.527 128.174C125.527 126.973 126.401 126.175 127.712 126.175H155.343C156.653 126.175 157.527 126.973 157.527 128.174C157.527 129.375 156.653 130.175 155.343 130.175Z" fill="#A7A9AB"/>
<rect width="272" height="43" transform="translate(0.26355 67.175)" fill="#EDEDED"/>
<path d="M96.3932 85.175H23.1339C21.4116 85.175 20.2635 83.9744 20.2635 82.1734C20.2635 80.3724 21.4117 79.175 23.1339 79.175H96.3932C98.1154 79.175 99.2635 80.3724 99.2635 82.1734C99.2635 83.9744 98.1154 85.175 96.3932 85.175Z" fill="#D0D0CE"/>
<path d="M67.9636 98.175H22.5635C21.1835 98.175 20.2635 97.3751 20.2635 96.1751C20.2635 94.9751 21.1835 94.175 22.5635 94.175H67.9636C69.3436 94.175 70.2636 94.9751 70.2636 96.1751C70.2636 97.3751 69.3436 98.175 67.9636 98.175Z" fill="#D0D0CE"/>
<path d="M124.964 98.175H79.5635C78.1835 98.175 77.2635 97.3751 77.2635 96.1751C77.2635 94.9751 78.1835 94.175 79.5635 94.175H124.964C126.344 94.175 127.264 94.9751 127.264 96.1751C127.264 97.3751 126.344 98.175 124.964 98.175Z" fill="#D0D0CE"/>
<path d="M181.964 98.175H136.563C135.184 98.175 134.264 97.3751 134.264 96.1751C134.264 94.9751 135.184 94.175 136.563 94.175H181.964C183.344 94.175 184.264 94.9751 184.264 96.1751C184.264 97.3751 183.344 98.175 181.964 98.175Z" fill="#D0D0CE"/>
<path d="M0 8C0 3.58172 3.58172 0 8 0H264.264C268.682 0 272.264 3.58172 272.264 8V25.363H0V8Z" fill="#EFF6FB"/>
</g>
<path d="M206.572 121.972H248.956C253.257 121.972 256.763 125.546 256.764 129.98C256.764 134.414 253.257 137.989 248.956 137.989H206.572C202.271 137.989 198.764 134.414 198.764 129.98C198.764 125.546 202.271 121.972 206.572 121.972Z" fill="#F7FAFD" stroke="#0E324F"/>
<path d="M220.588 128.33H245.36C245.993 128.33 246.497 128.526 246.841 128.845C247.182 129.163 247.386 129.623 247.386 130.197C247.386 130.771 247.182 131.231 246.841 131.549C246.497 131.869 245.993 132.065 245.36 132.065H220.588C219.955 132.065 219.451 131.869 219.107 131.549C218.766 131.231 218.561 130.771 218.561 130.197C218.561 129.623 218.766 129.163 219.107 128.845C219.451 128.526 219.955 128.33 220.588 128.33Z" fill="#154973" stroke="#0E324F" stroke-width="0.541284"/>
<path d="M209.901 127.517C210.119 127.517 210.31 127.6 210.474 127.765L214.27 131.606C214.42 131.758 214.495 131.95 214.495 132.185C214.495 132.42 214.42 132.614 214.27 132.765C214.12 132.917 213.929 132.993 213.698 132.993C213.465 132.993 213.274 132.917 213.124 132.765L209.906 129.51L209.901 129.514L209.484 129.927L206.678 132.765C206.528 132.917 206.337 132.993 206.105 132.993C205.873 132.993 205.681 132.917 205.531 132.765C205.382 132.614 205.307 132.42 205.307 132.185C205.307 131.951 205.382 131.758 205.531 131.606L209.328 127.765C209.492 127.6 209.683 127.517 209.901 127.517Z" fill="#154973" stroke="#0E324F" stroke-width="0.0135321"/>
<defs>
<clipPath id="clip0_11_45">
<path d="M0 0H272V136C272 140.418 268.418 144 264 144H8.00001C3.58173 144 0 140.418 0 136V0Z" fill="white"/>
</clipPath>
</defs>
</svg>

<svg xmlns="http://www.w3.org/2000/svg" width="272" height="144" fill="none" viewBox="0 0 272 144"><g clip-path="url(#a)"><path fill="#eff6fb" d="M.527 8.175a8 8 0 0 1 8-8h256a8 8 0 0 1 8 8v57h-272z"/><path fill="#d0d0ce" d="M.527 112.175h272v24a8 8 0 0 1-8 8h-256a8 8 0 0 1-8-8z"/><path fill="#a7a9ab" d="M21.898 126.915c-.272-.071-.516-.271-.81-.271a5.6 5.6 0 0 0-1.499.061c-.318.069-.573.127-.583.484-.003.316.396.637.33.96-.143.571-.865.922-1.327 1.205-.119.063-.312.157-.392.27-.134.189-.105.768 0 .77 1.647.005 6.6.007 8.887.006.3.025.497.237.64.513.145.252.162.584.282.836.154.265.548.375.793.539.32.191.617.404.965.562.192.087.437.182.553.37l.067.262c-.007.122-.168.215-.255.279-.133.1-.247.211-.323.364l-.018.242c.107.17.536.005.681-.043.202-.068.406-.159.616-.195.895-.159 1.811-.294 2.614-.719.114-.061.372-.157.403-.282.08-.311-.843-.014-.954.022-.2.07-.413.065-.621.096-.46.079-1.1.21-1.555.224-.228.025-.339-.15-.285-.376.063-.283.325-.457.307-.753-.036-.604.156-1.274.145-1.884-.033-.761.285-1.485.308-2.238.02-.646.113-1.292.034-1.934-.07-.569-.287-1.245-.242-1.819.011-.139.033-.226.072-.358.16-.441.009-.905.01-1.34.001-.544.098-.772-.25-.837-.349-.064-1.327.031-1.703.006-.529.015-1.067-.012-1.547.214-.596.284-1.062.799-1.455 1.311-.213.341-.647.448-.866.781-.222.307-.04.648-.028.985.015 1.038-.346.884-1.013 1.421-.288.232-.674.277-1.03.284-.284.007-.676.054-.95-.018M75.343 130.175H47.712c-1.311 0-2.185-.8-2.185-2.001s.874-1.999 2.185-1.999h27.63c1.311 0 2.185.798 2.185 1.999s-.874 2.001-2.184 2.001M115.343 130.175H87.712c-1.311 0-2.185-.8-2.185-2.001s.874-1.999 2.185-1.999h27.631c1.31 0 2.184.798 2.184 1.999s-.874 2.001-2.184 2.001M155.343 130.175h-27.631c-1.311 0-2.185-.8-2.185-2.001s.874-1.999 2.185-1.999h27.631c1.31 0 2.184.798 2.184 1.999s-.874 2.001-2.184 2.001"/><path fill="#ededed" d="M.264 67.175h272v43h-272z"/><path fill="#d0d0ce" d="M96.393 85.175h-73.26c-1.721 0-2.87-1.2-2.87-3.002 0-1.8 1.149-2.998 2.87-2.998h73.26c1.722 0 2.87 1.197 2.87 2.998s-1.148 3.002-2.87 3.002M67.964 98.175h-45.4c-1.38 0-2.3-.8-2.3-2s.92-2 2.3-2h45.4c1.38 0 2.3.8 2.3 2s-.92 2-2.3 2M124.964 98.175h-45.4c-1.38 0-2.3-.8-2.3-2s.92-2 2.3-2h45.4c1.38 0 2.3.8 2.3 2s-.92 2-2.3 2M181.964 98.175h-45.401c-1.379 0-2.299-.8-2.299-2s.92-2 2.299-2h45.401c1.38 0 2.3.8 2.3 2s-.92 2-2.3 2"/><path fill="#eff6fb" d="M0 8a8 8 0 0 1 8-8h256.264a8 8 0 0 1 8 8v17.363H0z"/></g><path fill="#f7fafd" stroke="#0e324f" d="M206.572 121.972h42.384c4.301 0 7.807 3.574 7.808 8.008s-3.507 8.009-7.808 8.009h-42.384c-4.301 0-7.808-3.575-7.808-8.009s3.507-8.008 7.808-8.008Z"/><path fill="#154973" stroke="#0e324f" stroke-width=".541" d="M220.588 128.33h24.772c.633 0 1.137.196 1.481.515.341.318.545.778.545 1.352s-.204 1.034-.545 1.352c-.344.32-.848.516-1.481.516h-24.772c-.633 0-1.137-.196-1.481-.516-.341-.318-.546-.778-.546-1.352s.205-1.034.546-1.352c.344-.319.848-.515 1.481-.515Z"/><path fill="#154973" stroke="#0e324f" stroke-width=".014" d="M209.901 127.517q.327 0 .573.248l3.796 3.841q.225.227.225.579a.8.8 0 0 1-.225.58.77.77 0 0 1-.572.228.77.77 0 0 1-.574-.228l-3.218-3.255-.005.004-.417.413-2.806 2.838a.77.77 0 0 1-.573.228.77.77 0 0 1-.574-.228.8.8 0 0 1-.224-.58q0-.351.224-.579l3.797-3.841a.78.78 0 0 1 .573-.248Z"/><defs><clipPath id="a"><path fill="#fff" d="M0 0h272v136a8 8 0 0 1-8 8H8a8 8 0 0 1-8-8z"/></clipPath></defs></svg>
